X:1001
T:Killoran's Reel
T:Paddy Killoran's
T:Wexford Lasses, The
R:reel
D:Noel Hill & Tony Linnane
Z:id:hn-reel-1001
M:C|
L:1/8
K:D
d3A BFAF | E2eg fdec | dcdA BGAF | GBAG FDDA |
dcdA BFAF | E2eg fdec | defd cdec | dBAG FDDe ||
fddc defd | ~g3a bgeg | fedc dfaf | g2eg fdde |
fddc defd | g2ga bgef | g2gf gaag | faeg fdef ||

